src/img/funnels/unionbg.svg

<svg width="1440" height="606" viewBox="0 0 1440 606" fill="none" xmlns="http://www.w3.org/2000/svg"><path fill-rule="evenodd" clip-rule="evenodd" d="M615.905 334.693H-451.843l.262-1.57H616.167c26.2-.138 49.082-16.699 66.164-47.837 0 0 106.39-195.73 128.433-236.485C832.807 8.046 851.496.138 878.342 0l123.698.138h124.4L1798.79 0v16.534h-6.06v15.962l-6.07.001V48.46l-6.07.001V64.42l-6.07.001v15.962l-6.07.002v15.961l-6.06.001v15.962l-6.07.002v15.958l-6.07.001v15.964l-6.07.001v15.905l-6.07.001v15.963l-6.07.001v15.959l-6.06.001v15.962l-6.07.002v15.961l-6.07.001v15.963l-6.07.001v15.962l-6.07.001v15.958l-6.06.002v15.962l-672.37.138H898.867l-110.546-.138-1.374.006-1.663.004h-.074c-25.742.056-56.985.125-83.437 46.835-27.528 48.609-121.516 222.514-121.516 222.514-17.432 31.772-40.785 48.663-67.509 48.801H-555l.262-1.571H513.01c26.2-.137 49.082-16.699 66.164-47.837 0 0 106.39-195.729 128.433-236.484 2.798-5.173 5.541-9.816 8.254-13.982-2.714 3.768-5.392 7.951-8.022 12.595-27.527 48.609-121.515 222.514-121.515 222.514-17.432 31.772-40.785 48.663-67.509 48.801H-548.934l.262-1.57H519.077c26.2-.138 49.081-16.699 66.164-47.837 0 0 106.389-195.73 128.432-236.485 2.777-5.133 5.5-9.745 8.192-13.886-2.692 3.744-5.347 7.897-7.956 12.504-27.527 48.608-121.516 222.513-121.516 222.513-17.431 31.772-40.784 48.664-67.508 48.802H-542.864l.262-1.571H525.147c26.2-.138 49.081-16.699 66.163-47.837 0 0 106.39-195.729 128.433-236.484 2.792-5.162 5.53-9.797 8.237-13.955-2.708 3.761-5.379 7.935-8.003 12.569-27.527 48.608-121.516 222.513-121.516 222.513-17.432 31.772-40.784 48.664-67.509 48.801H-536.796l.262-1.57H531.214c26.201-.138 49.082-16.699 66.164-47.837 0 0 106.39-195.729 128.433-236.485 2.788-5.153 5.521-9.782 8.225-13.936-2.704 3.757-5.37 7.925-7.989 12.55-27.528 48.609-121.516 222.514-121.516 222.514-17.432 31.771-40.785 48.663-67.509 48.801H-530.727l.262-1.571H537.284c26.2-.137 49.081-16.699 66.164-47.837 0 0 106.389-195.729 128.432-236.484 2.794-5.165 5.533-9.802 8.242-13.962-2.71 3.763-5.383 7.94-8.009 12.576-27.527 48.609-121.515 222.514-121.515 222.514-17.432 31.772-40.785 48.664-67.509 48.801H-524.66l.262-1.57H543.351c26.2-.138 49.081-16.699 66.164-47.837 0 0 106.389-195.73 128.432-236.485 2.799-5.174 5.544-9.82 8.258-13.987-2.716 3.77-5.394 7.954-8.026 12.601-27.527 48.608-121.516 222.513-121.516 222.513-17.431 31.772-40.784 48.664-67.508 48.802H-518.594l.262-1.571H549.417c26.2-.138 49.081-16.699 66.163-47.837 0 0 106.39-195.729 128.433-236.484 2.777-5.134 5.5-9.747 8.194-13.888-2.693 3.744-5.349 7.898-7.958 12.505-27.527 48.609-121.516 222.514-121.516 222.514-17.432 31.772-40.785 48.663-67.509 48.801H-512.524l.262-1.571H555.486c26.201-.137 49.082-16.698 66.164-47.837 0 0 106.39-195.729 128.433-236.484 2.797-5.171 5.54-9.814 8.253-13.979-2.714 3.767-5.391 7.949-8.02 12.592C722.788 255.593 628.8 429.498 628.8 429.498c-17.432 31.772-40.785 48.664-67.509 48.802H-506.457l.262-1.571H561.553c26.2-.138 49.082-16.699 66.164-47.837 0 0 106.39-195.729 128.433-236.484 2.653-4.906 5.258-9.336 7.835-13.334-2.57 3.613-5.106 7.602-7.6 12.005-27.527 48.608-121.515 222.513-121.515 222.513-17.432 31.772-40.785 48.664-67.509 48.801H-500.388l.262-1.57H567.623c26.2-.138 49.081-16.699 66.163-47.837 0 0 106.39-195.729 128.433-236.485 2.794-5.166 5.535-9.804 8.245-13.966-2.711 3.764-5.384 7.942-8.011 12.579-27.527 48.609-121.516 222.514-121.516 222.514-17.432 31.772-40.784 48.663-67.509 48.801H-494.32l.262-1.571H573.691c26.2-.137 49.081-16.698 66.163-47.837 0 0 106.39-195.729 128.433-236.484 2.777-5.135 5.501-9.748 8.195-13.89-2.693 3.745-5.349 7.899-7.959 12.507-27.528 48.609-121.516 222.514-121.516 222.514-17.432 31.772-40.785 48.664-67.509 48.801H-488.25l.262-1.57H579.76c26.2-.138 49.082-16.699 66.164-47.837 0 0 106.39-195.73 128.433-236.485 2.796-5.17 5.538-9.811 8.25-13.975-2.713 3.766-5.389 7.947-8.018 12.589-27.527 48.609-121.515 222.514-121.515 222.514-17.432 31.772-40.785 48.663-67.509 48.801H-482.184l.262-1.571H585.827c26.2-.137 49.081-16.698 66.164-47.837 0 0 106.389-195.729 128.432-236.484 2.796-5.168 5.537-9.808 8.248-13.971-2.712 3.765-5.387 7.945-8.015 12.585-27.528 48.609-121.516 222.514-121.516 222.514-17.432 31.772-40.785 48.664-67.509 48.801H-476.117l.262-1.57H591.893c26.2-.138 49.082-16.699 66.164-47.837 0 0 106.39-195.73 128.433-236.485 2.786-5.151 5.518-9.777 8.22-13.93-2.702 3.755-5.366 7.921-7.984 12.544-27.528 48.608-121.516 222.513-121.516 222.513-17.432 31.772-40.785 48.664-67.509 48.802H-470.047l.262-1.571H597.963c26.2-.138 49.081-16.699 66.164-47.837 0 0 106.39-195.729 128.433-236.484 2.783-5.146 5.513-9.768 8.212-13.917-2.7 3.752-5.363 7.915-7.978 12.534-27.528 48.609-121.516 222.514-121.516 222.514-17.432 31.772-40.785 48.663-67.509 48.801H-463.979l.262-1.571H604.031c26.2-.137 49.081-16.698 66.164-47.837 0 0 106.389-195.729 128.432-236.484 2.789-5.156 5.524-9.786 8.229-13.941-2.705 3.757-5.372 7.927-7.993 12.554-27.528 48.609-121.516 222.514-121.516 222.514-17.432 31.772-40.785 48.663-67.509 48.801H-457.91l.262-1.571H610.1c26.2-.137 49.082-16.698 66.164-47.837 0 0 106.39-195.729 128.433-236.484 2.793-5.164 5.532-9.801 8.241-13.962-2.71 3.763-5.382 7.94-8.008 12.577-27.528 48.608-121.516 222.513-121.516 222.513-17.432 31.772-40.785 48.664-67.509 48.801z" fill="#0097E2"/></svg>

<svg width="1440" height="606" viewBox="0 0 1440 606" fill="none" xmlns="http://www.w3.org/2000/svg">
<path fill-rule="evenodd" clip-rule="evenodd" d="M615.905 334.693H-451.843L-451.581 333.123H616.167C642.367 332.985 665.249 316.424 682.331 285.286C682.331 285.286 788.721 89.5565 810.764 48.8014C832.807 8.04631 851.496 0.137779 878.342 0L1002.04 0.137779H1126.44L1798.79 0V16.5335L1792.73 16.5348V32.4962L1786.66 32.4974V48.4602L1780.59 48.4614V64.4198L1774.52 64.4211V80.3834L1768.45 80.3846V96.3462L1762.39 96.3475V112.309L1756.32 112.311V128.269L1750.25 128.27V144.234L1744.18 144.235V160.14L1738.11 160.141V176.104L1732.04 176.105V192.064L1725.98 192.065V208.027L1719.91 208.029V223.99L1713.84 223.991V239.954L1707.77 239.955V255.917L1701.7 255.918V271.876L1695.64 271.878V287.84L1023.27 287.978H898.867L788.321 287.84C787.865 287.842 787.406 287.844 786.947 287.846C786.395 287.847 785.841 287.849 785.284 287.85L785.21 287.85C759.468 287.906 728.225 287.975 701.773 334.685C674.245 383.294 580.257 557.199 580.257 557.199C562.825 588.971 539.472 605.862 512.748 606H-555L-554.738 604.429H513.01C539.21 604.292 562.092 587.73 579.174 556.592C579.174 556.592 685.564 360.863 707.607 320.108C710.405 314.935 713.148 310.292 715.861 306.126C713.147 309.894 710.469 314.077 707.839 318.721C680.312 367.33 586.324 541.235 586.324 541.235C568.892 573.007 545.539 589.898 518.815 590.036H-548.934L-548.672 588.466H519.077C545.277 588.328 568.158 571.767 585.241 540.629C585.241 540.629 691.63 344.899 713.673 304.144C716.45 299.011 719.173 294.399 721.865 290.258C719.173 294.002 716.518 298.155 713.909 302.762C686.382 351.37 592.393 525.275 592.393 525.275C574.962 557.047 551.609 573.939 524.885 574.077H-542.864L-542.602 572.506H525.147C551.347 572.368 574.228 555.807 591.31 524.669C591.31 524.669 697.7 328.94 719.743 288.185C722.535 283.023 725.273 278.388 727.98 274.23C725.272 277.991 722.601 282.165 719.977 286.799C692.45 335.407 598.461 509.312 598.461 509.312C581.029 541.084 557.677 557.976 530.952 558.113H-536.796L-536.534 556.543H531.214C557.415 556.405 580.296 539.844 597.378 508.706C597.378 508.706 703.768 312.977 725.811 272.221C728.599 267.068 731.332 262.439 734.036 258.285C731.332 262.042 728.666 266.21 726.047 270.835C698.519 319.444 604.531 493.349 604.531 493.349C587.099 525.12 563.746 542.012 537.022 542.15H-530.727L-530.465 540.579H537.284C563.484 540.442 586.365 523.88 603.448 492.742C603.448 492.742 709.837 297.013 731.88 256.258C734.674 251.093 737.413 246.456 740.122 242.296C737.412 246.059 734.739 250.236 732.113 254.872C704.586 303.481 610.598 477.386 610.598 477.386C593.166 509.158 569.813 526.05 543.089 526.187H-524.66L-524.398 524.617H543.351C569.551 524.479 592.432 507.918 609.515 476.78C609.515 476.78 715.904 281.05 737.947 240.295C740.746 235.121 743.491 230.475 746.205 226.308C743.489 230.078 740.811 234.262 738.179 238.909C710.652 287.517 616.663 461.422 616.663 461.422C599.232 493.194 575.879 510.086 549.155 510.224H-518.594L-518.332 508.653H549.417C575.617 508.515 598.498 491.954 615.58 460.816C615.58 460.816 721.97 265.087 744.013 224.332C746.79 219.198 749.513 214.585 752.207 210.444C749.514 214.188 746.858 218.342 744.249 222.949C716.722 271.558 622.733 445.463 622.733 445.463C605.301 477.235 581.948 494.126 555.224 494.264H-512.524L-512.262 492.693H555.486C581.687 492.556 604.568 475.995 621.65 444.856C621.65 444.856 728.04 249.127 750.083 208.372C752.88 203.201 755.623 198.558 758.336 194.393C755.622 198.16 752.945 202.342 750.316 206.985C722.788 255.593 628.8 429.498 628.8 429.498C611.368 461.27 588.015 478.162 561.291 478.3H-506.457L-506.195 476.729H561.553C587.753 476.591 610.635 460.03 627.717 428.892C627.717 428.892 734.107 233.163 756.15 192.408C758.803 187.502 761.408 183.072 763.985 179.074C761.415 182.687 758.879 186.676 756.385 191.079C728.858 239.687 634.87 413.592 634.87 413.592C617.438 445.364 594.085 462.256 567.361 462.393H-500.388L-500.126 460.823H567.623C593.823 460.685 616.704 444.124 633.786 412.986C633.786 412.986 740.176 217.257 762.219 176.501C765.013 171.335 767.754 166.697 770.464 162.535C767.753 166.299 765.08 170.477 762.453 175.114C734.926 223.723 640.937 397.628 640.937 397.628C623.505 429.4 600.153 446.291 573.428 446.429H-494.32L-494.058 444.858H573.691C599.891 444.721 622.772 428.16 639.854 397.021C639.854 397.021 746.244 201.292 768.287 160.537C771.064 155.402 773.788 150.789 776.482 146.647C773.789 150.392 771.133 154.546 768.523 159.154C740.995 207.763 647.007 381.668 647.007 381.668C629.575 413.44 606.222 430.332 579.498 430.469H-488.25L-487.988 428.899H579.76C605.96 428.761 628.842 412.2 645.924 381.062C645.924 381.062 752.314 185.332 774.357 144.577C777.153 139.407 779.895 134.766 782.607 130.602C779.894 134.368 777.218 138.549 774.589 143.191C747.062 191.8 653.074 365.705 653.074 365.705C635.642 397.477 612.289 414.368 585.565 414.506H-482.184L-481.922 412.935H585.827C612.027 412.798 634.908 396.237 651.991 365.098C651.991 365.098 758.38 169.369 780.423 128.614C783.219 123.446 785.96 118.806 788.671 114.643C785.959 118.408 783.284 122.588 780.656 127.228C753.128 175.837 659.14 349.742 659.14 349.742C641.708 381.514 618.355 398.406 591.631 398.543H-476.117L-475.855 396.973H591.893C618.093 396.835 640.975 380.274 658.057 349.136C658.057 349.136 764.447 153.406 786.49 112.651C789.276 107.5 792.008 102.874 794.71 98.7217C792.008 102.476 789.344 106.642 786.726 111.265C759.198 159.873 665.21 333.778 665.21 333.778C647.778 365.55 624.425 382.442 597.701 382.58H-470.047L-469.785 381.009H597.963C624.163 380.871 647.044 364.31 664.127 333.172C664.127 333.172 770.517 137.443 792.56 96.6877C795.343 91.542 798.073 86.9198 800.772 82.7709C798.072 86.5229 795.409 90.686 792.794 95.3051C765.266 143.914 671.278 317.819 671.278 317.819C653.846 349.591 630.493 366.482 603.769 366.62H-463.979L-463.717 365.049H604.031C630.231 364.912 653.112 348.351 670.195 317.212C670.195 317.212 776.584 121.483 798.627 80.7281C801.416 75.5722 804.151 70.9419 806.856 66.7867C804.151 70.5439 801.484 74.7137 798.863 79.3411C771.335 127.95 677.347 301.855 677.347 301.855C659.915 333.627 636.562 350.518 609.838 350.656H-457.91L-457.648 349.085H610.1C636.3 348.948 659.182 332.387 676.264 301.248C676.264 301.248 782.654 105.519 804.697 64.7641C807.49 59.5996 810.229 54.9626 812.938 50.802C810.228 54.565 807.556 58.742 804.93 63.3785C777.402 111.987 683.414 285.892 683.414 285.892C665.982 317.664 642.629 334.556 615.905 334.693Z" fill="#0097E2"/>
</svg>
